!!!COM: Joplin, Scott
!!!CDT: 1868/11/24/-1917/04/01/
!!!OTL: Elite Syncopations Rag
!!!ODT: 1902///
**kern	**kern
*staff2	*staff1
*>[I,A,A1,A,A2,B,B1,B,B2,C,D,D1,D,D2,E,E1,E,E2]	*>[I,A,A1,A,A2,B,B1,B,B2,C,D,D1,D,D2,E,E1,E,E2]
*>norep[I,A,A2,B,B2,C,D,D2,E,E2]	*>norep[I,A,A2,B,B2,C,D,D2,E,E2]
*>I	*>I
*clefF4	*clefG2
*k[b-]	*k[b-]
*M2/4	*M2/4
*MM100	*MM100
=1-	=1-
*	*^
2r	16ccc/LL	16cc\LL
.	16aa/	16a\
.	16gg/	16g\
.	[16ff/JJ	[16f\JJ
.	16ff/LL]	16f\LL]
.	16aa/	16a\
.	16gg/	16g\
.	16ff/JJ	16f\JJ
=2	=2	=2
2r	16gg/LL	16g\LL
.	16ff/	16f\
.	16dd/	16d\
.	[16cc/JJ	[16c\JJ
.	16cc/LL]	16c\LL]
.	16f/	16F\
.	16g/	16G\
.	16a/JJ	16A\JJ
*	*v	*v
=3	=3
16C\LK	16c/LK
8G\	8g/
16F\Jk	16f/Jk
8E\L	8e/L
8G\J	8g/J
=4	=4
8c\	8e/ 8g/ 8cc/
8CC/ 8C/L	16r
.	16c/
8DD/ 8D/	16r
.	16d/LL
8EE/ 8E/J	16r
.	16e/JJ
=5!|:	=5!|:
*>A	*>A
4.FF/ 4.F/	16r
.	16f\LL
.	16dd\
.	[16f\ [16a\ [16cc\JJ
.	16f\] 16a\] 16cc\LL]
.	16dd\J
8FF#/ 8F#/	8d#\ 8a\ 8cc\J
=6	=6
4.GG\ 4.G\	16r
.	16e\LL
.	16dd\
.	[16e\ [16b-\ [16cc\JJ
.	16e\] 16b-\] 16cc\LL]
.	16dd\J
8GG#\ 8G#\	8e\ 8b-\ 8cc\J
=7	=7
8AA\ 8A\L	16r
.	16f/ 16a/ 16cc/LL
8E-\ 8e-\J	16r
.	16a/ 16cc/JJ
8D\ 8d\L	16r
.	16a-/ 16cc-/LL
8D-\ 8d-\J	16r
.	16g/ 16b-/JJ
=8	=8
*	*^
8C\ 8c\L	16a/LL	8f\L
.	16cc/	.
8BBn\ 8Bn\J	16dd/	8a-\J
.	16ff/JJ	.
8BB-\ 8B-\L	4r	8g\ 8cc\ 8ee\L
8CC\ 8C\J	.	8b-\ 8ee\ 8gg\J
*	*v	*v
=9	=9
8FF\L	16a\ 16ff\ 16aa\LL
.	16gg#\
8A\ 8c\ 8f\J	16aa\
.	[16ccc\JJ
8AA\L	16ccc\LL]
.	16aa\
8A\ 8c\ 8f\J	16ggn\
.	16ff\JJ
=10	=10
8BB-\L	16gg\LL
.	16ff\
8B-\ 8d\ 8f\J	16dd\
.	[16ff\JJ
8AA\L	16ff\LL]
.	16dd\
8A\ 8c\ 8f\J	16cc\
.	16a\JJ
=11	=11
8BBn\L	16g\LL
.	16gg\
8G\ 8Bn\ 8f\J	16ff\
.	16ee\JJ
8GG\L	16dd\LK
.	8a\
8G\ 8B\ 8f\J	.
.	16bn\Jk
=12	=12
8c\ 8e\	8cc\
8r	8r
8C\ 8c\L	8cc\ 8ee\ 8ccc\
8CC\ 8C\J	8r
=13	=13
4.FF/ 4.F/	16r
.	16f\LL
.	16dd\
.	[16f\ [16a\ [16cc\JJ
.	16f\] 16a\] 16cc\LL]
.	16dd\J
8FF#/ 8F#/	8d#\ 8a\ 8cc\J
=14	=14
4.GG\ 4.G\	16r
.	16e\LL
.	16dd\
.	[16e\ [16b-\ [16cc\JJ
.	16e\] 16b-\] 16cc\LL]
.	16dd\J
8GG#\ 8G#\	8e\ 8b-\ 8cc\J
=15	=15
8AA\ 8A\L	16r
.	16f/ 16a/ 16cc/LL
8E-\ 8e-\J	16r
.	16a/ 16cc/JJ
8D\ 8d\L	16r
.	16a-/ 16cc-/LL
8D-\ 8d-\J	16r
.	16g/ 16b-/JJ
=16	=16
*	*^
8C\ 8c\L	16a/LL	8f\L
.	16cc/	.
8BBn\ 8Bn\J	16dd/	8a-\J
.	16ff/JJ	.
8BB-\ 8B-\L	4r	8g\ 8cc\ 8ee\L
8CC\ 8C\J	.	8b-\ 8ee\ 8gg\J
*	*v	*v
=17	=17
8FF\L	16a\ 16ff\ 16aa\LL
.	16gg#\
8A\ 8c\ 8f\J	16aa\
.	[16ccc\JJ
8AA\L	16ccc\LL]
.	16aa\
8A\ 8c\ 8f\J	16ggn\
.	16ff\JJ
=18	=18
8BB-\L	16gg\LL
.	16ff\
8B-\ 8d\ 8f\J	16dd\
.	[16cc\JJ
8AA\L	16cc\LL]
.	16dd\
8A\ 8c\ 8f\J	16a\
.	16g\JJ
=19	=19
8DD/ 8D/L	16Bn/ 16f/LL
.	16g/J
8DD/ 8D/J	8B/ 8f/ 8a/J
8CC/ 8C/L	16B-/ 16e/ 16g/LK
.	8B-/ 8e/ 8g/
8EE/ 8E/J	.
.	16B-/ 16c/Jk
=20	=20
*>A1	*>A1
8FF/ 8F/	8A/ 8f/
8CC/ 8C/L	16r
.	16c/
8DD/ 8D/	16r
.	16d/LL
8EE/ 8E/J	16r
.	16e/JJ
=21:|!	=21:|!
*>A2	*>A2
8FF/ 8F/	8A/ 8f/
8r	16cc\LL
.	16cc\JJ
4r	8cc\L
.	8cc\J
=22	=22
*>B	*>B
8G\L	16ee\LL
.	16dd\
8B-\ 8c\ 8e\J	16cc\
.	16b-\JJ
8C\L	16a/LK
.	8b-/
8B-\ 8c\ 8e\J	.
.	16g/Jk
=23	=23
8F\L	16f/LL
.	16g/
8A\ 8c\J	16a/
.	[16c/JJ
8C\L	16c/LL]
.	16a/
8A\ 8c\J	16g/
.	16f/JJ
=24	=24
8G\L	16e/LL
.	16f/
8B-\ 8c\J	16g/
.	[16c/JJ
8C\L	16c/LL]
.	16b-/
8B-\ 8c\J	16a/
.	16g/JJ
=25	=25
8F\L	16f\LL
.	16a\
8A\ 8c\J	16dd\
.	[16cc\JJ
8A\L	8cc\L]
8c\ 8f\J	8cc\J
=26	=26
8G\L	16ee\LL
.	16dd\
8B-\ 8c\ 8e\J	16cc\
.	16b-\JJ
8E\L	16a/LK
.	8b-/
8G\ 8B-\ 8c#\J	.
.	16e/Jk
=27	=27
8D\L	16f/LL
.	16e/
8F\ 8A\ 8d\J	16f/
.	[16a/JJ
8D\L	16a/LL]
.	16a/
8F\ 8A\ 8d\J	16g/
.	16f/JJ
=28	=28
8E\L	16e/LL
.	16cc/
8A\ 8c\J	16bn/
.	16a/JJ
8E\L	16g#/LK
.	8b/
8G#\ 8d\J	.
.	16e/Jk
=29	=29
8A\ 8c\	8a/
8r	8r
4C\ 4c\	4e/ 4b-/ 4cc/
=30	=30
8G\L	16ee\LL
.	16dd\
8B-\ 8c\ 8e\J	16cc\
.	16b-\JJ
8C\L	16a/LK
.	8b-/
8c\ 8e\J	.
.	16g/Jk
=31	=31
8F\L	16f/LL
.	16g/
8A\ 8c\J	16a/
.	[16c/JJ
8C\L	16c/LL]
.	16a/
8A\ 8c\J	16g/
.	16f/JJ
=32	=32
8G\L	16e/LL
.	16f/
8B-\ 8c\J	16g/
.	[16c/JJ
8C\L	16c/LL]
.	16b-/
8B-\ 8c\J	16a/
.	16g/JJ
=33	=33
8F\L	16f\LL
.	16a\
8A\ 8c\J	16dd\
.	[16cc\JJ
8C\L	8cc\L]
8A\ 8c\J	8cc\J
=34	=34
8BB-\L	16b-\ 16dd\LK
.	8gg\
8G\ 8B-\ 8d\J	.
.	[16b-\ [16dd\Jk
8BB-\L	16b-\] 16dd\LL]
.	16gg\J
8G\ 8B-\ 8d\J	8b-\ 8dd\J
=35	=35
8C\L	16a\ 16cc\LK
.	8ff\
8A\ 8c\J	.
.	[16a\ [16cc\Jk
8C\L	16a\] 16cc\LL]
.	16ff\J
8A\ 8c\J	8a\ 8cc\J
=36	=36
8C\L	16b-\LL
.	16g\
8B-\ 8c\ 8e\J	16dd\
.	[16cc\JJ
8C\L	16cc\LL]
.	16b-\J
8G\ 8B-\ 8c\J	8e\J
=37	=37
*>B1	*>B1
8F\ 8A\ 8c\	8f\L
8r	16cc\L
.	16cc\JJ
4r	8cc\L
.	8cc\J
=38:|!	=38:|!
*>B2	*>B2
8F\ 8A\ 8c\	8f/
8CC/ 8C/L	16r
.	16c/
8DD/ 8D/	16r
.	16d/LL
8EE/ 8E/J	16r
.	16e/JJ
=39	=39
*>C	*>C
4.FF/ 4.F/	16r
.	16f\LL
.	16dd\
.	[16f\ [16a\ [16cc\JJ
.	16f\] 16a\] 16cc\LL]
.	16dd\J
8FF#/ 8F#/	8d#\ 8a\ 8cc\J
=40	=40
4.GG\ 4.G\	16r
.	16e\LL
.	16dd\
.	[16e\ [16b-\ [16cc\JJ
.	16e\] 16b-\] 16cc\LL]
.	16dd\J
8GG#\ 8G#\	8e\ 8b-\ 8cc\J
=41	=41
8AA\ 8A\L	16r
.	16f/ 16a/ 16cc/LL
8E-\ 8e-\J	16r
.	16a/ 16cc/JJ
8D\ 8d\L	16r
.	16a-/ 16cc-/LL
8D-\ 8d-\J	16r
.	16g/ 16b-/JJ
=42	=42
*	*^
8C\ 8c\L	16a/LL	8f\L
.	16cc/	.
8BBn\ 8Bn\J	16dd/	8a-\J
.	16ff/JJ	.
8BB-\ 8B-\L	4r	8g\ 8cc\ 8ee\L
8CC\ 8C\J	.	8b-\ 8ee\ 8gg\J
*	*v	*v
=43	=43
8FF\L	16a\ 16ff\ 16aa\LL
.	16gg#\
8A\ 8c\ 8f\J	16aa\
.	[16ccc\JJ
8AA\L	16ccc\LL]
.	16aa\
8A\ 8c\ 8f\J	16ggn\
.	16ff\JJ
=44	=44
8BB-\L	16gg\LL
.	16ff\
8B-\ 8d\ 8f\J	16dd\
.	[16ff\JJ
8AA\L	16ff\LL]
.	16dd\
8A\ 8c\ 8f\J	16cc\
.	16a\JJ
=45	=45
8BBn\L	16g\LL
.	16gg\
8G\ 8Bn\ 8f\J	16ff\
.	16ee\JJ
8GG\L	16dd\LK
.	8a\
8G\ 8B\ 8f\J	.
.	16bn\Jk
=46	=46
8c\ 8e\	8cc\
8r	8r
8C\ 8c\L	8cc\ 8ee\ 8ccc\
8CC\ 8C\J	8r
=47	=47
4.FF/ 4.F/	16r
.	16f\LL
.	16dd\
.	[16f\ [16a\ [16cc\JJ
.	16f\] 16a\] 16cc\LL]
.	16dd\J
8FF#/ 8F#/	8d#\ 8a\ 8cc\J
=48	=48
4.GG\ 4.G\	16r
.	16e\LL
.	16dd\
.	[16e\ [16b-\ [16cc\JJ
.	16e\] 16b-\] 16cc\LL]
.	16dd\J
8GG#\ 8G#\	8e\ 8b-\ 8cc\J
=49	=49
8AA\ 8A\L	16r
.	16f/ 16a/ 16cc/LL
8E-\ 8e-\J	16r
.	16a/ 16cc/JJ
8D\ 8d\L	16r
.	16a-/ 16cc-/LL
8D-\ 8d-\J	16r
.	16g/ 16b-/JJ
=50	=50
*	*^
8C\ 8c\L	16a/LL	8f\L
.	16cc/	.
8BBn\ 8Bn\J	16dd/	8a-\J
.	16ff/JJ	.
8BB-\ 8B-\L	4r	8g\ 8cc\ 8ee\L
8CC\ 8C\J	.	8b-\ 8ee\ 8gg\J
*	*v	*v
=51	=51
8FF\L	16a\ 16ff\ 16aa\LL
.	16gg\
8A\ 8c\ 8f\J	16aa\
.	[16ccc\JJ
8AA\L	16ccc\LL]
.	16aa\
8A\ 8c\ 8f\J	16ggn\
.	16ff\JJ
=52	=52
8BB-\L	16gg\LL
.	16ff\
8B-\ 8d\ 8f\J	16dd\
.	[16cc\JJ
8AA\L	16cc\LL]
.	16dd\
8A\ 8c\ 8f\J	16a\
.	16g\JJ
=53	=53
8DD/ 8D/L	16Bn/ 16f/LL
.	16g/J
8DD/ 8D/J	8B/ 8f/ 8a/J
8CC/ 8C/L	16B-/ 16e/ 16g/LK
.	8B-/ 8e/ 8g/
8EE/ 8E/J	.
.	16B-/ 16c/Jk
=54	=54
8FF/ 8F/	8A/ 8f/
8r	8r
4FF/ 4F/	4a\ 4ee-\ 4ff\
=55	=55
*>D	*>D
*k[b-e-]	*k[b-e-]
8BB-\L	16b-\ 16dd\LL
.	16gg\
8F\ 8B-\ 8d\J	16ff\
.	16ee-\JJ
8D\L	16dd\LL
.	16cc\
8F\ 8B-\ 8d\J	16b-\
.	16dd\JJ
=56	=56
8E-\L	16cc/LL
.	16b-/
8G\ 8B-\ 8e-\J	16g/
.	[16f/JJ
8D\L	16f\LK]
.	8bb-\
8F\ 8B-\ 8d\J	.
.	16gg\Jk
=57	=57
8BB-\L	16ff\LL
.	16gg\
8F\ 8B-\ 8d\J	16ff\
.	16dd\JJ
8C\L	16b-\LL
.	16cc\
8B-\ 8c\ 8en\J	16dd\
.	[16a\ [16cc\JJ
=58	=58
8F\ 8A\ 8e-\L	4.a\] 4.cc\]
8FF\ 8F\J	.
8GG\ 8G\L	.
8AA\ 8A\J	8f/
=59	=59
8BB-\ 8B-\L	16dd\LL
.	16gg\
8F\ 8B-\ 8d\J	16ff\
.	16ee-\JJ
8D\L	16dd\LL
.	16ee-\
8F#\ 8c\ 8d\J	16dd\
.	16cc\JJ
=60	=60
8G\L	16b-\LL
.	16a\
8B-\ 8d\J	16g\
.	[16b-\JJ
8G\L	16b-\LL]
.	16dd\
8B-\ 8d\J	16cc\
.	16b-\JJ
=61	=61
8A\L	16a\LL
.	16dd\
8d\ 8f\J	16ff\
.	16aa\JJ
8A\L	16gg\LK
.	8ff\
8c#\ 8g\J	.
.	16een\Jk
=62	=62
8d\ 8f\	8dd\
8r	8r
4FF/ 4F/	4a\ 4ee-\ 4ff\
=63	=63
8BBB-\ 8BB-\L	16b-\ 16dd\LL
.	16gg\
8F\ 8B-\ 8d\J	16ff\
.	16ee-\JJ
8D\L	16dd\LL
.	16cc\
8F\ 8B-\ 8d\J	16b-\
.	16dd\JJ
=64	=64
8E-\L	16cc/LL
.	16b-/
8G\ 8B-\ 8e-\J	16g/
.	[16f/JJ
8D\L	16f\LK]
.	8bb-\
8F\ 8B-\ 8d\J	.
.	16gg\Jk
=65	=65
8BB-\L	16ff\LL
.	16gg\
8F\ 8B-\ 8d\J	16ff\
.	16dd\JJ
8C\L	16b-\LL
.	16cc\
8B-\ 8c\ 8en\J	16dd\
.	[16a\ [16cc\JJ
=66	=66
8F\ 8A\ 8e-\L	4.a\] 4.cc\]
8FF\ 8F\J	.
8GG\ 8G\L	.
8AA\ 8A\J	8f/
=67	=67
8BB-\ 8B-\L	16dd\LL
.	16cc#\
8F\ 8B-\ 8d\J	16dd\
.	16ee-\JJ
8D\L	16ff\LL
.	16een\
8F\ 8B-\ 8d\J	16ff\
.	16ff#\JJ
=68	=68
8E-\L	16gg\LL
.	16ff#\
8G\ 8B-\ 8e-\J	16gg\
.	[16bb-\JJ
8En\L	16bb-\LL]
.	16bb-\
8G\ 8B-\ 8c#\J	16aa\
.	16gg\JJ
=69	=69
8F\L	16ff\LL
.	16ddd\
8B-\ 8d\J	16ccc\
.	16ff\JJ
8FF\L	16gg\LL
.	16ee-\
8F\ 8A\ 8e-\J	16cc\
.	16a\JJ
=70	=70
*>D1	*>D1
8B-\ 8d\	8b-/L
8r	16en/L
.	16f/JJ
4r	16g\LL
.	16a\
.	16b-\
.	16cc\JJ
=71:|!	=71:|!
*>D2	*>D2
*^	*
4.d/	8B-\L	4.b-\
.	8BBB-\ 8BB-\J	.
.	8CC/ 8C/L	.
8r	8DD/ 8D/J	16r
.	.	[16b-\ [16bb-\
*v	*v	*
=72!|:	=72!|:
*>E	*>E
8EE-\ 8E-\L	16b-\] 16bb-\LL]
.	16ee-\
8G\ 8B-\ 8e-\J	16cc\ 16ccc\
.	16ee-\JJ
8G\ 8B-\ 8e-\L	16gg\LK
.	8b-\ 8bb-\
8DD\ 8D\J	.
.	16ee-\Jk
=73	=73
8EE-/ 8E-/L	16cc\ 16ccc\LL
.	16ee-\
8FF/ 8F/J	16gg\
.	[16b-\ [16bb-\JJ
8GG/ 8G/L	16b-\] 16bb-\LK]
.	8cc\ 8ccc\
8AA/ 8A/J	.
.	16b-\ 16bb-\Jk
=74	=74
8BB-\ 8B-\L	16f\ 16ff\LL
.	16b-\
8F\ 8B-\ 8d\J	16g\ 16gg\
.	16b-\JJ
8F\ 8B-\ 8d\L	16dd\LK
.	8f\ 8ff\
8C#\ 8c#\J	.
.	16b-\Jk
=75	=75
8D\ 8d\L	16g\ 16gg\LL
.	16b-\
8F\ 8B-\ 8d\J	16dd\
.	16f\ [16ff\JJ
8F\ 8B-\ 8d\L	16f\ 16ff\LK]
.	8g\ 8gg\
8FF\ 8F\J	.
.	16b-\Jk
=76	=76
8C\ 8c\L	16f\ 16ff\LL
.	16a\
8F\ 8A\ 8e-\J	16g\ 16gg\
.	16a\JJ
8F\ 8A\ 8e-\L	16cc\LK
.	8f\ 8ff\
8FF\ 8F\J	.
.	16a\Jk
=77	=77
8C\ 8c\L	16g\ 16gg\LL
.	16a\
8F\ 8A\ 8e-\J	16cc\
.	[16f\ [16ff\JJ
8C\ 8c\L	16f\] 16ff\LK]
.	8g\ 8gg\
8C#\ 8c#\J	.
.	16a\Jk
=78	=78
8D\ 8d\L	16f\ 16ff\LL
.	16b-\
8F\ 8B-\ 8d\J	16g\ 16gg\
.	16b-\JJ
8F\ 8B-\ 8d\L	16dd\LK
.	8f\ 8ff\
8FF\ 8F\J	.
.	16b-\Jk
=79	=79
8BB-\ 8B-\L	16g\ 16gg\LL
.	16b-\
8F\ 8B-\ 8d\J	16dd\
.	[16f\ [16ff\JJ
8F\ 8B-\ 8d\L	16f\] 16ff\LK]
.	8f\ 8ff\
8DD\ 8D\J	.
.	[16b-\ [16bb-\Jk
=80	=80
8EE-\ 8E-\L	16b-\] 16bb-\LL]
.	16ee-\
8G\ 8B-\ 8e-\J	16cc\ 16ccc\
.	16ee-\JJ
8G\ 8B-\ 8e-\L	16gg\LK
.	8b-\ 8bb-\
8DD\ 8D\J	.
.	16ee-\Jk
=81	=81
8EE-/ 8E-/L	16cc\ 16ccc\LL
.	16ee-\
8FF/ 8F/J	16gg\
.	[16b-\ [16bb-\JJ
8GG/ 8G/L	16b-\] 16bb-\LK]
.	8cc\ 8ccc\
8AA/ 8A/J	.
.	16b-\ 16bb-\Jk
=82	=82
8BB-\ 8B-\L	16f\ 16ff\LL
.	16b-\
8F\ 8B-\ 8d\J	16g\ 16gg\
.	16b-\JJ
8FF\L	16dd\LK
.	8f\ 8ff\
8F\ 8B-\ 8d\J	.
.	16b-\Jk
=83	=83
8BB-\L	16g\ 16gg\LL
.	16b-\
8F\ 8B-\ 8d\J	16dd\
.	[16f\ [16ff\JJ
8FF\L	16f\] 16ff\LK]
.	8f\ 8ff\
8F\ 8B-\ 8d\J	.
.	[16en\ [16dd-\Jk
=84	=84
8GG-\ 8G-\L	16e/] 16dd-/LL]
.	16b-/
8D-\ 8d-\J	16en/ 16dd-/
.	16b-/JJ
8BB-\ 8B-\L	16cc/LK
.	8e/ 8dd-/
8GG-\ 8G-\J	.
.	16b-/Jk
=85	=85
8FF\ 8F\L	16f\ 16ddn\LL
.	16b-\
8Dn\ 8dn\J	16cc\
.	[16f\ [16dd\JJ
8BB-\ 8B-\L	16f\] 16dd\LK]
.	8f\ 8dd\
8FF\ 8F\J	.
.	[16f\ [16ff\Jk
=86	=86
8C\ 8c\L	16f\] 16ff\LL]
.	16cc\
8F\ 8A\ 8e-\J	16g\ 16gg\
.	16cc\JJ
8FF\ 8F\L	16ee-\LK
.	8a\ 8aa\
8F\ 8A\ 8e-\J	.
.	[16b-\ [16bb-\Jk
=87	=87
*>E1	*>E1
*^	*
4d/	8B-\L	4b-\] 4bb-\]
.	8BBB-\ 8BB-\J	.
8CC/ 8C/L	4r	8.r
8DD/ 8D/J	.	.
.	.	[16b-\ [16bb-\
=88:|!	=88:|!	=88:|!
*v	*v	*
*>E2	*>E2
*^	*
4d/	8B-\L	4b-\] 4bb-\]
.	8FF\ 8F\J	.
8BBB-/ 8BB-/	4r	8b-\ 8dd\ 8bb-\
8r	.	8r
*v	*v	*
==	==
*-	*-
!!!ENC: Craig Stuart Sapp
!!!END: 2005/03/30/
